packages/core/src/svgs/tokens/mono/VIA.svg

<svg width="24" height="24" viewBox="0 0 24 24" fill="none" xmlns="http://www.w3.org/2000/svg">
<path d="M10.7928 12.7143H13.2071L11.9999 15.5715L10.7928 12.7143ZM3.42847 2L5.57134 7.00001H3.42847V9.1428H6.48563L7.09991 10.5715H3.42847V12.7143H8.0142L11.9999 22L15.9856 12.7143H20.5713V10.5715H16.9L17.5143 9.1428H20.5713V7.00001H18.4285L20.5713 2H17.7143L14.1428 10.5715H9.8571L6.28563 2H3.42847Z" fill="white"/>
</svg>

<svg xmlns="http://www.w3.org/2000/svg" width="24" height="24" fill="none" viewBox="0 0 24 24">
    <path fill="#fff" d="M10.793 12.714h2.414L12 15.572zM3.428 2l2.143 5H3.428v2.143h3.058L7.1 10.57H3.428v2.143h4.586L12 22l3.986-9.286h4.585v-2.142H16.9l.614-1.43h3.057V7h-2.143l2.143-5h-2.857l-3.571 8.572H9.857L6.286 2z"/>
</svg>
